public/flags/EU.svg

<svg fill="none" height="53" viewBox="0 0 61 53" width="61" xmlns="http://www.w3.org/2000/svg" xmlns:xlink="http://www.w3.org/1999/xlink"><mask id="a" height="43" maskUnits="userSpaceOnUse" width="59" x="1" y="3"><rect fill="#fff" height="42.5" rx="4.24286" width="59" x="1" y="3"/></mask><rect fill="#fff" height="42.5" rx="4.24286" width="59" x="1" y="3"/><g mask="url(#a)"><path d="m1 3h59v42.5h-59z" fill="#043cae"/><path clip-rule="evenodd" d="m28.5135 12.0868 1.9866-.5868 1.9867.5868-.5819-2.0035.5819-2.00344-1.9867.58681-1.9866-.58681.5819 2.00344zm0 28.3333 1.9866-.5868 1.9867.5868-.5819-2.0034.5819-2.0035-1.9867.5868-1.9866-.5868.5819 2.0035zm16.0342-14.7534-1.9866.5868.5819-2.0035-.5819-2.0035 1.9866.5868 1.9867-.5868-.5819 2.0035.5819 2.0035zm-30.0819.5868 1.9867-.5868 1.9866.5868-.5819-2.0035.5819-2.0035-1.9866.5868-1.9867-.5868.5819 2.0035zm28.1999-7.6702-1.9866.5868.5818-2.0034-.5818-2.0035 1.9866.5868 1.9866-.5868-.5818 2.0035.5818 2.0034zm-26.3178 14.7535 1.9866-.5868 1.9867.5868-.5819-2.0035.5819-2.0034-1.9867.5868-1.9866-.5868.5819 2.0034zm21.176-19.9389-1.9866.5868.5819-2.0034-.5819-2.00349 1.9866.58679 1.9867-.58679-.5819 2.00349.5819 2.0034zm-16.0342 25.1242 1.9866-.5868 1.9867.5868-.5819-2.0034.5819-2.0035-1.9867.5868-1.9866-.5868.5819 2.0035zm21.176-5.7721-1.9866.5868.5818-2.0035-.5818-2.0034 1.9866.5868 1.9866-.5868-.5818 2.0034.5818 2.0035zm-26.3178-13.5799 1.9866-.5868 1.9867.5868-.5819-2.0034.5819-2.0035-1.9867.5868-1.9866-.5868.5819 2.0035zm21.176 18.7652-1.9866.5868.5819-2.0034-.5819-2.0035 1.9866.5868 1.9867-.5868-.5819 2.0035.5819 2.0034zm-16.0342-23.9506 1.9866-.5868 1.9867.5868-.5819-2.0034.5819-2.00349-1.9867.58679-1.9866-.58679.5819 2.00349z" fill="#ffd429" fill-rule="evenodd"/></g></svg>

<svg width="61" height="53" viewBox="0 0 61 53" fill="none" xmlns="http://www.w3.org/2000/svg">
<rect x="1" y="3" width="59" height="42.5" rx="4.24286" fill="white"/>
<mask id="mask0" mask-type="alpha" maskUnits="userSpaceOnUse" x="1" y="3" width="59" height="43">
<rect x="1" y="3" width="59" height="42.5" rx="4.24286" fill="white"/>
</mask>
<g mask="url(#mask0)">
<rect x="1" y="3" width="59" height="42.5" fill="#043CAE"/>
<path fill-rule="evenodd" clip-rule="evenodd" d="M28.5135 12.0868L30.5001 11.5L32.4868 12.0868L31.9049 10.0833L32.4868 8.07986L30.5001 8.66667L28.5135 8.07986L29.0954 10.0833L28.5135 12.0868ZM28.5135 40.4201L30.5001 39.8333L32.4868 40.4201L31.9049 38.4167L32.4868 36.4132L30.5001 37L28.5135 36.4132L29.0954 38.4167L28.5135 40.4201ZM44.5477 25.6667L42.5611 26.2535L43.143 24.25L42.5611 22.2465L44.5477 22.8333L46.5344 22.2465L45.9525 24.25L46.5344 26.2535L44.5477 25.6667ZM14.4658 26.2535L16.4525 25.6667L18.4391 26.2535L17.8572 24.25L18.4391 22.2465L16.4525 22.8333L14.4658 22.2465L15.0477 24.25L14.4658 26.2535ZM42.6657 18.5833L40.6791 19.1701L41.2609 17.1667L40.6791 15.1632L42.6657 15.75L44.6523 15.1632L44.0705 17.1667L44.6523 19.1701L42.6657 18.5833ZM16.3479 33.3368L18.3345 32.75L20.3212 33.3368L19.7393 31.3333L20.3212 29.3299L18.3345 29.9167L16.3479 29.3299L16.9298 31.3333L16.3479 33.3368ZM37.5239 13.3979L35.5373 13.9847L36.1192 11.9813L35.5373 9.97781L37.5239 10.5646L39.5106 9.97781L38.9287 11.9813L39.5106 13.9847L37.5239 13.3979ZM21.4897 38.5221L23.4763 37.9353L25.463 38.5221L24.8811 36.5187L25.463 34.5152L23.4763 35.102L21.4897 34.5152L22.0716 36.5187L21.4897 38.5221ZM42.6657 32.75L40.6791 33.3368L41.2609 31.3333L40.6791 29.3299L42.6657 29.9167L44.6523 29.3299L44.0705 31.3333L44.6523 33.3368L42.6657 32.75ZM16.3479 19.1701L18.3345 18.5833L20.3212 19.1701L19.7393 17.1667L20.3212 15.1632L18.3345 15.75L16.3479 15.1632L16.9298 17.1667L16.3479 19.1701ZM37.5239 37.9353L35.5373 38.5221L36.1192 36.5187L35.5373 34.5152L37.5239 35.102L39.5106 34.5152L38.9287 36.5187L39.5106 38.5221L37.5239 37.9353ZM21.4897 13.9847L23.4763 13.3979L25.463 13.9847L24.8811 11.9813L25.463 9.97781L23.4763 10.5646L21.4897 9.97781L22.0716 11.9813L21.4897 13.9847Z" fill="#FFD429"/>
</g>
</svg>
